X:1
T:Non mi lasciar'
T:Non mi lasciar'
T:Gio.Girolamo Kapsperger
C:Gio.Girolamo Kapsperger
%%score [ 1 2 ] { 3 | 4 }
L:1/8
Q:1/4=120
M:4/4
K:F
V:1 treble nm="Soprano 1" snm="S 1"
V:2 treble nm="Soprano 2" snm="S 2"
V:3 treble nm="BC" snm="BC"
V:4 bass 
V:1
 z4 z dcd | Bc AB G2 _ef | d2 cB AG A=B | G8 :: z2 _ee e3 e | d4 z AAB | G3 c A4 | z2 ff _e3 d | %8
w: Non mi la-|sciar' _ mai _ piu, dol- *|cis- si- * mo _ Gie- *|su.|1)Co- me'in ciel ba-|len', o- gni mio|ben fug- gi,|poi ch'il bel se-|
w: ||||2)Un mo- men- to|sol', non vis- se'il|cor si- cur',|per me l'al- ba'e'il|
w: ||||3)Vin- ca'il mio fal-|lir', Gie- su la|tua bon- ta,|suel- ga'il mio mar-|
w: ||||4)Sor- ga su'l mat-|tin o ca- sch'il|sol nel mar',|sen- za te mes-|
w: ||||5)Qual so- lin- go'au-|gel', pian- si la|not- te'il di,|d'as- sen- tio'e di|
 _e3 g e d2 d/c/ |"^Non mi lasciar\n      \n\n\n""^Non mi lasciar" !fermata!B8 :| %10
w: ren', di tua gra- tia spa-|ri.|
w: sol, fu co- me'in- fer- n'o-|scur.|
w: tir, Gie- su la tua pie-|ta.|
w: chin', non fo che so- spi-|rar'.|
w: fel', I miei pen- sier nu-|dri.|
V:2
 z4 z BAB | GA F2 G2 cd | B2 AG ^FE F2 | G8 :: z2 cc c3 c | B4 z ^FFG | E3 E F4 | z2 A=B c3 B | %8
w: Non mi la-|sciar' _ mai piu, dol- *|cis- si- * mo _ Gie-|su.|1)Co- me'in ciel ba-|len', o- gni mio|ben fug- gi,|poi ch'il bel se-|
w: ||||2)Un mo- men- to|sol', non vis- se'il|cor si- cur,|per me l'al- ba'e'il|
w: ||||3)Vin- ca'il mio fal-|lir, Gie- su la|tua bon- ta,|suel- ga'il mio mar-|
w: ||||4)Sor- ga su'l mat-|tin, o ca- sch'il|sol nel mar',|sn- za te mes-|
w: ||||5)Qual so- lin- go'au-|gel', pian- si la|not- te'il di,|d'as- sen- tio'e di|
 c3 _e c B2 B/A/ | %9
w: ren', di tua gra- tia spa-|
w: sol, fu co- me'in- fer- n'o-|
w: tir, Gie- su la tua pie-|
w: chin', non fo che so- spi-|
w: fel', I miei pen- sier nu-|
"^Non m lasciar""^Non mi lasciar""^Non mi lasciar""^Non mi lasciar""^Non mi lasciar" !fermata!B8 :| %10
w: ri.|
w: scur.|
w: ta.|
w: rar'.|
w: dri.|
V:3
 z4 [FBd]2 [Ac]2 | [GBd]2 [FAd]2 [GB]2 [G_e]2 | [FA]2 [Gc]2 [G_e]2 [^FAd]2 | [DG=B]8 :: %4
 [G_e]6 [_Ec]2 | [DFB]4 [^FA]3 [DB] | [EGc]4 [FAc]4 | [Adf]4 [_EGc]2 [G=Bd]2 | %8
 [_EGc]2 [EGB]2 [Ac]2 [Bd]2 |"^Non mi lasciar""^Non mi lasciar""^Non mi lasciar" !fermata![DFB]8 :| %10
V:4
 z4 B,2 F,2 | G,2 D,2 _E,2 C,2 | D,2 _E,2 C,2 D,2 | G,,8 :: C,6 A,,2 | B,,4 D,3 G,, | C,4 F,,4 | %7
 D,4 C,2 G,,2 | C,2 _E,2 F,4 | B,,8 :| %10

